shared/images/iconfont/kb-iconfont-nav-git-24.svg

<?xml version="1.0" encoding="UTF-8"?>
<svg width="24px" height="24px" viewBox="0 0 24 24" version="1.1" xmlns="http://www.w3.org/2000/svg" xmlns:xlink="http://www.w3.org/1999/xlink">
    <!-- Generator: sketchtool 49.3 (51167) - http://www.bohemiancoding.com/sketch -->
    <title>B289F86A-82EC-42CA-8CCB-3A7F4781938A</title>
    <desc>Created with sketchtool.</desc>
    <defs></defs>
    <g id="Colors,-icons" stroke="none" stroke-width="1" fill="none" fill-rule="evenodd">
        <g id="Icons-2" transform="translate(-94.000000, -415.000000)">
            <g id="kb-iconfont-nav-git-24" transform="translate(94.000000, 415.000000)">
                <rect id="icon-area" fill="#D8D8D8" opacity="0" x="0" y="0" width="24" height="24"></rect>
                <path d="M20.0004061,10.0214647 C18.5771546,10.0246938 17.2637865,10.7871297 16.5552161,12.0214647 L15.0004061,12.0214647 C12.4102657,12.0133234 10.2569696,10.0247753 10.0431261,7.44346474 C11.5971261,6.52187751 12.3408354,4.6732919 11.858035,2.93227416 C11.3752345,1.19125641 9.78569325,-0.0102970863 7.97900245,6.65202857e-05 C6.17231166,0.0104301269 4.59665932,1.23013993 4.13386379,2.97658183 C3.67106826,4.72302374 4.43593578,6.56295579 6.00040606,7.46665474 L6.00040606,16.5762747 C4.432534,17.4814861 3.66813088,19.3269185 4.13670276,21.0756525 C4.60527463,22.8243866 6.18998335,24.0403764 8.00040606,24.0403764 C9.81082877,24.0403764 11.3955375,22.8243866 11.8641094,21.0756525 C12.3326812,19.3269185 11.5682781,17.4814861 10.0004061,16.5762747 L10.0004061,14.4997347 C11.4784683,15.4933185 13.2194305,16.0231734 15.0004061,16.0214647 L16.5552161,16.0214647 C17.5288392,17.6962001 19.5640709,18.4305395 21.3827135,17.7632918 C23.2013561,17.096044 24.2787472,15.2197044 23.9382471,13.3126805 C23.5977469,11.4056566 21.9375868,10.0181081 20.0004061,10.0214647 Z M8.00040606,21.5214647 C7.17197894,21.5214647 6.50040606,20.8498919 6.50040606,20.0214647 C6.50040606,19.1930376 7.17197894,18.5214647 8.00040606,18.5214647 C8.82883319,18.5214647 9.50040606,19.1930376 9.50040606,20.0214647 C9.4995022,20.8495172 8.82845851,21.5205609 8.00040606,21.5214647 Z M8.00040606,5.52146474 C7.17197894,5.52146474 6.50040606,4.84989187 6.50040606,4.02146474 C6.50040606,3.19303762 7.17197894,2.52146474 8.00040606,2.52146474 C8.82883319,2.52146474 9.50040606,3.19303762 9.50040606,4.02146474 C9.4995022,4.84951719 8.82845851,5.52056088 8.00040606,5.52146474 Z M20.0004061,15.5214647 C19.1719789,15.5214647 18.5004061,14.8498919 18.5004061,14.0214647 C18.5004061,13.1930376 19.1719789,12.5214647 20.0004061,12.5214647 C20.8288332,12.5214647 21.5004061,13.1930376 21.5004061,14.0214647 C21.4995022,14.8495172 20.8284585,15.5205609 20.0004061,15.5214647 Z" id="merge" fill="#000000" fill-rule="nonzero"></path>
            </g>
        </g>
    </g>
</svg>

<svg xmlns="http://www.w3.org/2000/svg" width="24" height="24" viewBox="0 0 24 24">
    <path fill="#000" fill-rule="nonzero" d="M20 10.021a3.983 3.983 0 0 0-3.445 2H15a4.99 4.99 0 0 1-4.957-4.578A4.002 4.002 0 1 0 6 7.467v9.11a4 4 0 1 0 4 0V14.5a8.947 8.947 0 0 0 5 1.521h1.555a3.993 3.993 0 1 0 3.445-6zm-12 11.5a1.5 1.5 0 1 1 0-3 1.5 1.5 0 0 1 0 3zm0-16a1.5 1.5 0 1 1 0-3 1.5 1.5 0 0 1 0 3zm12 10a1.5 1.5 0 1 1 0-3 1.5 1.5 0 0 1 0 3z"/>
</svg>
